build/img/SVG/desktop.svg

<?xml version="1.0" encoding="utf-8"?>
<!-- Generated by IcoMoon.io -->
<!DOCTYPE svg PUBLIC "-//W3C//DTD SVG 1.1//EN" "http://www.w3.org/Graphics/SVG/1.1/DTD/svg11.dtd">
<svg version="1.1" xmlns="http://www.w3.org/2000/svg" xmlns:xlink="http://www.w3.org/1999/xlink" width="60" height="56" viewBox="0 0 60 56">
<path fill="#444444" d="M56 31v-26q0-0.406-0.297-0.703t-0.703-0.297h-50q-0.406 0-0.703 0.297t-0.297 0.703v26q0 0.406 0.297 0.703t0.703 0.297h50q0.406 0 0.703-0.297t0.297-0.703zM60 5v34q0 2.062-1.469 3.531t-3.531 1.469h-17q0 1.156 0.5 2.422t1 2.219 0.5 1.359q0 0.812-0.594 1.406t-1.406 0.594h-16q-0.812 0-1.406-0.594t-0.594-1.406q0-0.438 0.5-1.375t1-2.188 0.5-2.437h-17q-2.062 0-3.531-1.469t-1.469-3.531v-34q0-2.062 1.469-3.531t3.531-1.469h50q2.062 0 3.531 1.469t1.469 3.531z"></path>
</svg>

<svg xmlns="http://www.w3.org/2000/svg" width="60" height="56" viewBox="0 0 60 56"><path fill="#444" d="M56 31V5q0-.406-.297-.703T55 4H5q-.406 0-.703.297T4 5v26q0 .406.297.703T5 32h50q.406 0 .703-.297T56 31zm4-26v34q0 2.062-1.47 3.53T55 44H38q0 1.156.5 2.422t1 2.22T40 50q0 .812-.594 1.406T38 52H22q-.812 0-1.406-.594T20 50q0-.438.5-1.375t1-2.188T22 44H5q-2.062 0-3.53-1.47T0 39V5q0-2.062 1.47-3.53T5 0h50q2.062 0 3.53 1.47T60 5z"/></svg>
